X:1
T:Title
%%score { ( 1 4 ) | ( 2 3 ) }
L:1/8
M:4/4
K:G
V:1 treble nm="Grand Piano"
V:4 treble 
V:2 bass 
V:3 bass 
V:1
 z4 z2[Q:1/4=100] [DGB]>[CGc] | [B,Gd]2 [DGB]>[CFA] [B,G]2 [G,DF]>E | D6 G>A | B2 c>d ed G>B | %4
 [FA]6 B>c | d2 [GB]>[FA] G2 F>E | D6 G>A | B2 [Gc]>[Ge] [Gd]2 [A,DF]>[A,DF] |[M:3/4] [B,DG]6 | %9
[M:1/4] Bd |[M:4/4] eddd d2 Bd | [Gd]c[Fc][Fc] [Fc]2 [FA]>[GB] | [Ac]2 [Ac]>[Ac] [Ac]2 [GB]>[FA] | %13
 B6 B>c | d6 z2 | G6 z2 | D2 G>[GB] [Fd][Fd] [CDF]2 |[M:3/4] [B,DG]6 |[M:1/4] Bd | %19
[M:4/4] eddd d2 Bd | [Gd]c[Fc][Fc] [Fc]2 [FA]>[GB] | [Ac]2 [Ac]>[Ac] [Ac]2 [GB]>[FA] | B6 B>c | %23
 d6 z2 | G6 z2 | D2 G>[GB] [Fd][Fd] [CDF]2 |[M:3/4] [B,DG]6 |] %27
V:2
 z4 z2 G,,>G,, | G,,2 G,,>A,, B,,2 C,>[E,G,C] | [G,B,]6 [G,B,]>[K:treble][G,CG] | z4 [G,G]2 z2 | %4
 [D,D]6 [G,DG]>[G,CG] | [G,B,G]2[K:bass] [D,D]>[D,C] [E,B,]2 [C,C]>[E,G,C] | %6
 [G,B,]6[K:treble] [B,D]>[A,DF] | [G,DG]2[K:bass] [E,C]>[C,C] [D,B,]2 D,>D, |[M:3/4] G,,6 | %9
[M:1/4][K:treble] [G,DG][G,B,G] |[M:4/4] [G,G]2 z2 z2 .D2 | .B,2 z2 z4 | %12
 [D,D]2 [D,D]>[D,D] [D,D]2 [D,D]>[D,D] | [G,DG]6 G>A | B6[K:bass][K:treble] z2 | E6[K:bass] z2 | %16
 [D,G,B,]2 [D,B,D]>[D,B,] [D,A,][D,A,] D,2 |[M:3/4] G,,6 |[M:1/4][K:treble] [G,DG][G,B,G] | %19
[M:4/4] [G,G]2 z2 z2 .D2 | .B,2 z2 z4 | [D,D]2 [D,D]>[D,D] [D,D]2 [D,D]>[D,D] | [G,DG]6 G>A | %23
 B6[K:bass][K:treble] z2 | E6[K:bass] z2 | [D,G,B,]2 [D,B,D]>[D,B,] [D,A,][D,A,] D,2 | %26
[M:3/4] G,,6 |] %27
V:3
 x8 | x8 | x15/2[K:treble] x/ | [G,DG]2 [G,EG]>[G,B,G] CB, [G,B,]>[G,^CG] | x8 | x2[K:bass] x6 | %6
 x6[K:treble] x2 | x2[K:bass] x6 |[M:3/4] x6 |[M:1/4][K:treble] x2 | %10
[M:4/4] CB,[G,B,G][G,B,G] [G,B,G]2 [G,G]-[G,B,G] | D,-[D,A,F][D,A,][D,A,] [D,A,]2 [D,D]>[D,D] | %12
 x8 | x8 | z2[K:bass] G,,>G,, G,,2[K:treble] =F>F | z2[K:bass] C,>C, C,2 (3[C,G,]-[C,G,D][C,G,C] | %16
 x8 |[M:3/4] x6 |[M:1/4][K:treble] x2 |[M:4/4] CB,[G,B,G][G,B,G] [G,B,G]2 [G,G]-[G,B,G] | %20
 D,-[D,A,F][D,A,][D,A,] [D,A,]2 [D,D]>[D,D] | x8 | x8 | z2[K:bass] G,,>G,, G,,2[K:treble] =F>F | %24
 z2[K:bass] C,>C, C,2 (3[C,G,]-[C,G,D][C,G,C] | x8 |[M:3/4] x6 |] %27
V:4
 x8 | x8 | x8 | x8 | x8 | x8 | x8 | x8 |[M:3/4] x6 |[M:1/4] x2 |[M:4/4] x8 | x8 | x8 | x8 | %14
 z2 D>D B,2 G>A | z2 C>C C2 (3[EG]FE | x8 |[M:3/4] x6 |[M:1/4] x2 |[M:4/4] x8 | x8 | x8 | x8 | %23
 z2 D>D B,2 G>A | z2 C>C C2 (3[EG]FE | x8 |[M:3/4] x6 |] %27

